X:1
T:Birgebärg-Juiz  Bb
T:Hrch. Jos. Leuthold (18.9.1910-15.10.2001)
T:Dirigenten-Notiz, Edi Gasser
C:Unterwalden (CH)
%%partsbox
P:ABACC
M:3/4
R:Naturjodel
L:1/8
K:Bb
[P:A] "fröhlich getragen"  F3B DF | B,3D Fd | c3A FA | E6 | F3c EF | 
A,3E Fc | B3d FB | D6 | F3B DF | B,3D Fd | 
c3E Ge | c3B AG | F2DF Be | d4c2 | (B6 | B4)z2 ||  
M:3/4
[P:B] c3G EG | e3d cf | B3F DF | d3c Bf | A3F EF | 
e3d cf | B3D Ff | d6 | c3G EG | e3d cf | 
B3F DF | d3c Bf | A3F EF | e3d cf | (B6 | B2)z ||
M:3/4
[P:C] "schnell, lüpfig"  B, C D | E4B,2 | E3G FE | D3F dB | F3d cB | A2FAF2 | 
E3F dc | B3D Fd | B3B, CD | E4B,2 | E3G FE | D3F dB | 
F3d cB | A2FAF2 | E3F dc | (B6 | B2)z |]
W:
W:Reihenfolge: A-B-A-C-C
W:
W:UJV-Naturjodelsammlung: Code-Nr: 03-01
W:http://www.naturjodler.ch/code 03.htm  (with AUDIO)
%April 28, 2018

